assets/logos/pipedrive.svg

<svg width="80" height="80" viewBox="0 0 80 80" fill="none" xmlns="http://www.w3.org/2000/svg">
<path d="M34.4201 36.059C34.4201 40.9474 36.8999 46.2208 42.3571 46.2208C46.4042 46.2208 50.4962 43.0613 50.4962 35.9873C50.4962 29.7852 47.2794 25.6216 42.4918 25.6216C38.5906 25.6216 34.4201 28.3621 34.4201 36.059ZM44.4143 16.5658C54.1991 16.5658 60.7784 24.3155 60.7784 35.8514C60.7784 47.2061 53.8475 55.1332 43.9393 55.1332C39.2152 55.1332 36.1893 53.1099 34.6071 51.6453C34.6183 51.9925 34.6258 52.3813 34.6258 52.7966V68.1941H24.4894V27.1693C24.4894 26.5728 24.2987 26.3841 23.7077 26.3841H20.2217V17.4H28.7273C32.6434 17.4 33.6458 19.3931 33.8366 20.9295C35.4263 19.1478 38.7215 16.5658 44.4143 16.5658Z" fill="#26292C"/>
</svg>

<svg xmlns="http://www.w3.org/2000/svg" width="80" height="80" fill="none" viewBox="0 0 80 80"><path fill="#26292c" d="M34.42 36.059c0 4.888 2.48 10.162 7.937 10.162 4.047 0 8.14-3.16 8.14-10.234 0-6.202-3.218-10.365-8.005-10.365-3.901 0-8.072 2.74-8.072 10.437m9.994-19.493c9.785 0 16.364 7.75 16.364 19.285 0 11.355-6.93 19.282-16.839 19.282-4.724 0-7.75-2.023-9.332-3.488.011.347.019.736.019 1.152v15.397H24.489V27.17c0-.596-.19-.785-.781-.785h-3.486V17.4h8.505c3.916 0 4.919 1.993 5.11 3.53 1.59-1.782 4.884-4.364 10.577-4.364"/></svg>
